!!! OTL: Berkowitz492
!!! Chapter: 1
!!! Section: IV
!!! Page: 122
!!! Mode: 
!!! Encoder: DJB
**kern
*staff1
*I"Piano
=1-
*clefC4
*k[b-]
*d:
*M3/4
4d\
4A\
4F/
=2
2C#/
4D/
=3
4B-\
4A\
4d\
=4
4c#\
4f\
4e\
=5
4.g\
8f\
8e\L
8d\J
=6
2G#/
4A\
=7
4r
4f\
4c#\
=8
16d\LL
16e\
16d\
16c#\JJ
2d\
==
*-
